X:56
T:Ronde de Loudac
M:4/4
L:1/8
K:G
Gd dB d2 e2|fe dB d2 e2|dd/d/ dB d2 e2|fe dB d2 e2||
d2 Bc d2 dB|Ac BG AA G2|GB Bc d2 dB|(3ABc BG AA G2||
